X:91
T:The Black Bird (A dirge) * 
C:
B:American Veteran Fifer #91
M:2/4
L:1/8
Q:1/4=50
K:D
A|B2 A>G|B2 (3ABc|d>c dA|G2 FG|A2 fd|cABG|F2 D>D|D2 z:||:A|defg |a2 fa|gfga|g2{ag}fe|
defg|agfe|f2 d>d|defg|agfa|f2fe|fdcA|f2 ed|cABG|FBAG|F2D>D|D3:|
